X:1
T:The Dying Preacher
M:6/8
L:1/4
K:Ab
 A/2| F E/2 F F/2| E F/2 C c/2| B A/2 F A/2| B3/2- B c/2| B A/2 F F/2|\
 E F/2 C E/2| F E/2 C E/2| F3/2- F||
